X:1
T: Coming from the Wedding
C:
R:Reel
Q: 232
K:A
M:4/4
L:1/8
|:((3EFG)|A2 ce ag fe|dc BA GB Ec|B2 GB EB GB|AA Bc dc dB|
A2 ce ag fe|dc BA GB EB|Ac eg ag af|ed cA A2:|
|:cd|e2 ce Ae ce|f2 df Bf df|e2 ce Ae ce|dc BA GA Bc|
e2 ce Ae ce|dc de fg af|ea gf ed cB|Ad cB A2:|
